X:1
T:Staten Island Hornpipe
R:Hornpipe
M:C|
Z:Steven M. Palm
L:1/8
K:D
|:AG|FDFGA2A2|dfed dcBA|B2GBA2FA|G2E2E2AG|
      FDFGA2A2|dfed dcBA|d2dd efge|f2d2d2:|
fg|a2fag2eg|f2df ecA2|=c2c2efge|=c2c2efge|
    a2fag2eg|f2df ecA2|d2dd ef ge|f2d2d2:|

